UI/Misc/SVG/car-wifi-off_solid_16px.svg

<svg width="16" height="16" viewBox="0 0 16 16" fill="none" xmlns="http://www.w3.org/2000/svg">
<path d="M15 2L2 15L1 14L14 1L15 2ZM12.55 8.11L14 11V12V13C14 13.5304 13.7893 14.0391 13.4142 14.4142C13.0391 14.7893 12.5304 15 12 15H11L10 14H6L5 15H4C3.84505 14.9954 3.69094 14.9753 3.54 14.94L5.47 13H6V12.47L7.47 11H12L11.36 9.44C11.2503 9.16731 11.063 8.93284 10.8212 8.76572C10.5794 8.59861 10.2939 8.50621 10 8.5L11.4 7.1C11.9021 7.27087 12.3157 7.63417 12.55 8.11ZM12 12H10V13H12V12ZM9 4H7C6.12651 3.9997 5.27807 4.2919 4.59 4.83L5.79 5.83C6.15676 5.61425 6.57448 5.50032 7 5.5H8L9.48 4C9.32017 3.98969 9.15983 3.98969 9 4ZM6 2.5H10C10.3013 2.50174 10.6008 2.5455 10.89 2.63L12.07 1.46C11.4214 1.15864 10.7152 1.00169 10 1H6C5.26972 1.00442 4.54927 1.16876 3.88932 1.48146C3.22936 1.79416 2.64591 2.24764 2.18 2.81L3.32 3.81C3.64262 3.40769 4.05015 3.08165 4.51345 2.85519C4.97675 2.62872 5.48437 2.50744 6 2.5ZM6.53 7H5.24C4.86792 7.0002 4.50326 7.10419 4.18704 7.30028C3.87083 7.49637 3.61558 7.77679 3.45 8.11L2 11V11.53L6.53 7Z" fill="#0F1621"/>
</svg>

<svg xmlns="http://www.w3.org/2000/svg" width="16" height="16" viewBox="0 0 16 16"><rect width="16" height="16" style="fill:none"/><path d="M15,2,2,15,1,14,14,1ZM12.55,8.11,14,11h0v1h0v1a2,2,0,0,1-2,2H11l-1-1H6L5,15H4a2.32,2.32,0,0,1-.46-.06L5.47,13H6v-.53L7.47,11H12l-.64-1.56A1.5,1.5,0,0,0,10,8.5l1.4-1.4A2,2,0,0,1,12.55,8.11ZM12,12H10v1h2ZM9,4H7a3.91,3.91,0,0,0-2.41.83l1.2,1A2.39,2.39,0,0,1,7,5.5H8L9.48,4A3.73,3.73,0,0,0,9,4ZM6,2.5h4a3.24,3.24,0,0,1,.89.13l1.18-1.17A4.94,4.94,0,0,0,10,1H6A5,5,0,0,0,2.18,2.81l1.14,1A3.5,3.5,0,0,1,6,2.5ZM6.53,7H5.24A2,2,0,0,0,3.45,8.11L2,11H2v.53Z" style="fill:#231f20"/></svg>
